16x16/apps/lutris_lyne.svg

<svg height="16" width="16" xmlns="http://www.w3.org/2000/svg"><rect fill="#f2385a" height="15" rx=".75" width="15" x="1" y="1"/><path d="m4.5 3.5-1.5 1.5 1.5 1.5 1.5-1.5zm4 0-1.5 1.5 1.5 1.5 1.5-1.5zm4 0-1.5 1.5 1.5 1.5 1.5-1.5zm-8 4-1.5 1.5 1.5 1.5 1.5-1.5zm4 0-1.5 1.5 1.5 1.5 1.5-1.5zm4 0-1.5 1.5 1.5 1.5 1.5-1.5zm-8 4-1.5 1.5 1.5 1.5 1.5-1.5zm4 0-1.5 1.5 1.5 1.5 1.5-1.5zm4 0-1.5 1.5 1.5 1.5 1.5-1.5z" fill="#f4f4f7"/></svg>

<svg height="16" width="16" xmlns="http://www.w3.org/2000/svg">
    <rect fill="#f2385a" height="15" rx=".75" width="15" x="1" y="1"/>
    <path d="M4.5 3.5 3 5l1.5 1.5L6 5zm4 0L7 5l1.5 1.5L10 5zm4 0L11 5l1.5 1.5L14 5zm-8 4L3 9l1.5 1.5L6 9zm4 0L7 9l1.5 1.5L10 9zm4 0L11 9l1.5 1.5L14 9zm-8 4L3 13l1.5 1.5L6 13zm4 0L7 13l1.5 1.5L10 13zm4 0L11 13l1.5 1.5L14 13z" fill="#f4f4f7"/>
</svg>
